assets/svg/icon_home_notification.svg

<svg width="24" height="24" viewBox="0 0 24 24" fill="none" xmlns="http://www.w3.org/2000/svg">
<path fill-rule="evenodd" clip-rule="evenodd" d="M12.0016 2.4043C8.18354 2.4043 5.08615 5.47178 5.08615 9.25297V9.87464C5.08615 10.4902 4.90237 11.0935 4.55752 11.6047L3.53332 13.1282C2.34392 14.8951 3.25249 17.298 5.32155 17.8562C5.99678 18.0382 6.67614 18.1916 7.35964 18.3184V18.3225C8.04726 20.1364 9.88092 21.4043 12.0037 21.4043C14.1264 21.4043 15.9601 20.1364 16.6456 18.3225V18.3184C17.3312 18.1916 18.0105 18.0382 18.6858 17.8562C20.7548 17.298 21.6634 14.8951 20.474 13.1282L19.4498 11.6047C19.105 11.0914 18.9212 10.4902 18.9212 9.87464V9.25297C18.9191 5.47178 15.8217 2.4043 12.0016 2.4043ZM15.0143 18.5659C13.0134 18.8031 10.9898 18.8031 8.98887 18.5659C9.6228 19.4677 10.7275 20.0791 12.0016 20.0791C13.2757 20.0791 14.3804 19.4677 15.0143 18.5659ZM6.42422 9.25297C6.42422 6.20184 8.92072 3.72945 12.0016 3.72945C15.0825 3.72945 17.579 6.20184 17.579 9.25297V9.87464C17.579 10.7519 17.8412 11.6108 18.3327 12.3409L19.3569 13.8644C20.0404 14.8787 19.5179 16.2571 18.3306 16.5781C14.1863 17.6967 9.81484 17.6967 5.67052 16.5781C4.48319 16.2571 3.96076 14.8787 4.64425 13.8644L5.66846 12.3409C6.15991 11.6108 6.42216 10.7519 6.42216 9.87464V9.25297H6.42422Z" fill="#0E0E0E"/>
</svg>

<svg xmlns="http://www.w3.org/2000/svg" width="24" height="24" fill="none"><path fill="#0E0E0E" fill-rule="evenodd" d="M12.002 2.404c-3.818 0-6.916 3.068-6.916 6.849v.622c0 .615-.184 1.219-.528 1.73l-1.025 1.523c-1.19 1.767-.28 4.17 1.789 4.728q1.012.273 2.038.462v.005c.687 1.813 2.52 3.081 4.644 3.081 2.122 0 3.956-1.268 4.642-3.081v-.005q1.027-.189 2.04-.462c2.069-.558 2.977-2.96 1.788-4.728l-1.024-1.523a3.1 3.1 0 0 1-.529-1.73v-.622c-.002-3.781-3.1-6.849-6.92-6.849m3.012 16.162c-2 .237-4.024.237-6.025 0 .634.902 1.738 1.513 3.013 1.513s2.378-.611 3.012-1.513m-8.59-9.313c0-3.051 2.497-5.524 5.578-5.524 3.08 0 5.577 2.473 5.577 5.524v.622c0 .877.262 1.736.754 2.466l1.024 1.523c.683 1.015.16 2.393-1.026 2.714a24.3 24.3 0 0 1-12.66 0c-1.188-.32-1.71-1.7-1.027-2.714l1.024-1.523c.492-.73.754-1.59.754-2.466v-.622z" clip-rule="evenodd"/></svg>
